X: 4
T: Blinda Jannes Vals
M: 3/4
L: 1/8
K: D
Q: 180
z2 |(D2F2)A2|(D2F2)A2| f2(fe) de| f4d2| (cd)(ef)(gf)| e4 G2|
g2g2G2|g2g2e2| (ab) (ag) (b3/2a/)| f4d2| d2 (cd) ed| B4d2|
(cd) (ef) (ec)| A4 A2| (gf) (ed) (cB)| (AB) (AG) (FA)| (dc) (df) (ec) | d4 :: [K:A] (Ac) |
e3f ed| (ce) (cA) ce| (ed) (Bd) Bd| (dc) (Ac) Ac|
e3f ed| (ce) (cA) ce| (ed) (Bd) BG| A4 :: e2|
e(a c')e (ac')| e(a c')e (ac')| e(b d')e (bd')| e(b d')e (bd')|
e(a c')e (ac')| e(a c')e (ac')| e(b d')e (gb)| a4 :|